X:7361
T:The Spring Lambs
O:england
H:From Joe Martin of Kilfinane: 1842
B:Joyce, P. W.; "Old Irish Folk Music and Songs"
R:song air
L:1/8
M:C
K:F
D>E|F4 E4|D>EFG A2 d>e|f4 e4|dAAG A>GFE|
F2 F>F E2 E>E|DEFG A2 d>e|f>dec dAAd|cAGE D2||
A=B|c>dcA FGAd|f2 g2 a2 fg|agfa gece|f2 e2 d2 A>=B|
c>dcA FGAd|f2 g2 a2 f>g|agab afde|f2 e2 d2||


